X: 08056
T: JESSE'S JIG
C: Bob McQuillen 25 July 93
B: Bob's Note Book 8 #56
%R: jig
Z: 2021 John Chambers <jc:trillian.mit.edu>
M: 6/8
L: 1/8
K: G
|:DEG E2G | DGB AGE | DEG E2G | BdB AGE |\
| DEG E2G | DGB AGE | GBd edB | GAB AGE :|
|:GBd edB | GAB A2B | GBd edB | dBG AGE |\
| GBd edB | GAB A2B | cde dBG | BdB AGE :|
%%begintext align
%% Donna Long plays piano
%% for the Irish contingent at Augusta. Her young son, who has taken up the
%% fiddle, asked me one day how I named my tunes. I said I named them
%% after peole, places, or things that for one reason or another became
%% dear to me. After a short pause, he suddenly stuck out his hand
%% and said brightly, "_My_ name is Jesse Smith!" Behold the result.
%%endtext

%%sep 1 1 500

%%sep 1 1 500

